Yaru++/status/symbolic/network-wireless-disabled-symbolic.svg

<svg height="16" width="16" xmlns="http://www.w3.org/2000/svg"><g fill="#808080"><path d="m8.0039062 2a10.382 10.382 0 0 0 -3.0214843.4472656l.8554687.8554688a9.367 9.367 0 0 1 8.7949214 2.4824218l.734376-.7382812a10.382 10.382 0 0 0 -7.3632818-3.046875zm-6.2929687 2.125a10.382 10.382 0 0 0 -1.07226562.921875l.73437502.7382812a9.367 9.367 0 0 1 1.0820312-.9160156zm6.2929687.8574219c-.1541602 0-.3089669.0140236-.4628906.0234375l1.0429688 1.0429687a6.45 6.45 0 0 1 3.9843746 1.8632813l.738282-.7363282a7.475 7.475 0 0 0 -5.3027348-2.1933593zm-4.1699218 1.265625c-.4000483.2678-.7815602.5745289-1.1347656.9277343l.7363281.7363282a6.45 6.45 0 0 1 1.1523437-.9101563zm2.1875 2.1875a4.566 4.566 0 0 0 -1.2578125.8828125l.734375.7382816a3.533 3.533 0 0 1 1.3164062-.8281254zm1.9824218 2.5664061a2 2 0 0 0 -2 2 2 2 0 0 0 2 2 2 2 0 0 0 1.9999998-2 2 2 0 0 0 -.1367185-.720703l-1.1464844-1.146484a2 2 0 0 0 -.7167969-.132813z" opacity=".5"/><path d="m1.531.469-1.061 1.061 14 14 1.062-1.062z" transform="translate(.03 -.03)"/></g></svg>

<?xml version="1.0" encoding="UTF-8" standalone="no"?>
<svg
   xmlns:dc="http://purl.org/dc/elements/1.1/"
   xmlns:cc="http://creativecommons.org/ns#"
   xmlns:rdf="http://www.w3.org/1999/02/22-rdf-syntax-ns#"
   xmlns:svg="http://www.w3.org/2000/svg"
   xmlns="http://www.w3.org/2000/svg"
   xmlns:sodipodi="http://sodipodi.sourceforge.net/DTD/sodipodi-0.dtd"
   xmlns:inkscape="http://www.inkscape.org/namespaces/inkscape"
   height="16"
   width="16"
   version="1.1"
   id="svg4"
   sodipodi:docname="network-wireless-disabled-symbolic.svg"
   inkscape:version="0.92.4 (5da689c313, 2019-01-14)">
  <metadata
     id="metadata10">
    <rdf:RDF>
      <cc:Work
         rdf:about="">
        <dc:format>image/svg+xml</dc:format>
        <dc:type
           rdf:resource="http://purl.org/dc/dcmitype/StillImage" />
        <dc:title></dc:title>
      </cc:Work>
    </rdf:RDF>
  </metadata>
  <defs
     id="defs8" />
  <sodipodi:namedview
     pagecolor="#ffffff"
     bordercolor="#666666"
     borderopacity="1"
     objecttolerance="10"
     gridtolerance="10"
     guidetolerance="10"
     inkscape:pageopacity="0"
     inkscape:pageshadow="2"
     inkscape:window-width="1920"
     inkscape:window-height="1016"
     id="namedview6"
     showgrid="false"
     inkscape:zoom="14.75"
     inkscape:cx="8"
     inkscape:cy="8"
     inkscape:window-x="0"
     inkscape:window-y="27"
     inkscape:window-maximized="1"
     inkscape:current-layer="svg4" />
  <path
     style="marker:none;opacity:0.5;fill:#808080;fill-opacity:1"
     d="M 8.0039062 2 A 10.382 10.382 0 0 0 4.9824219 2.4472656 L 5.8378906 3.3027344 A 9.367 9.367 0 0 1 14.632812 5.7851562 L 15.367188 5.046875 A 10.382 10.382 0 0 0 8.0039062 2 z M 1.7109375 4.125 A 10.382 10.382 0 0 0 0.63867188 5.046875 L 1.3730469 5.7851562 A 9.367 9.367 0 0 1 2.4550781 4.8691406 L 1.7109375 4.125 z M 8.0039062 4.9824219 C 7.849746 4.9824219 7.6949393 4.9964455 7.5410156 5.0058594 L 8.5839844 6.0488281 A 6.45 6.45 0 0 1 12.568359 7.9121094 L 13.306641 7.1757812 A 7.475 7.475 0 0 0 8.0039062 4.9824219 z M 3.8339844 6.2480469 C 3.4339361 6.5158469 3.0524242 6.8225758 2.6992188 7.1757812 L 3.4355469 7.9121094 A 6.45 6.45 0 0 1 4.5878906 7.0019531 L 3.8339844 6.2480469 z M 6.0214844 8.4355469 A 4.566 4.566 0 0 0 4.7636719 9.3183594 L 5.4980469 10.056641 A 3.533 3.533 0 0 1 6.8144531 9.2285156 L 6.0214844 8.4355469 z M 8.0039062 11.001953 A 2 2 0 0 0 6.0039062 13.001953 A 2 2 0 0 0 8.0039062 15.001953 A 2 2 0 0 0 10.003906 13.001953 A 2 2 0 0 0 9.8671875 12.28125 L 8.7207031 11.134766 A 2 2 0 0 0 8.0039062 11.001953 z "
     id="path2" />
  <g
     id="g821"
     style="fill:#2e3436"
     transform="translate(0.03,-0.03)">
    <path
       id="path819"
       d="M 1.531,0.469 0.47,1.53 l 14,14 1.062,-1.062 z"
       inkscape:connector-curvature="0"
       style="fill:#808080;fill-opacity:1" />
  </g>
</svg>
